X: 12499
T: Farewell To Fiunary
R: waltz
M: 3/4
K: Gmajor
G4 B2 & [D6 G,6]|d4 B2 & [D6 G,6]|A4 G2 & [A,6 D6]|F4 A2 & [A,6 D6]|B4 E2 & [B,6 E6]|E4 F2 & [B,4 E4] [B,2 D2]|E4 D2 & [B,6]|B,4 D2 & [G,4] [B,2]|
E4 F2 & [B,4 E4] [B,2 D2]|G4 A2 & [G,4 D4] [A,2 D2]|B6 & [G,6 D6]|d4 d2 & [B,6 G6]|e4 e2 & [G,6 G6]|d4 B2 & [B,6 G6]|A6 & [A,6 F6]|G4 & [G,4 G4]:|

